X:4
T:Jenny Lind
C:trad. arr. Robin Garside
Z:ABC version by Jack Campin
N:initial A upbeat added to simplify repeat structure (JC)
M:C|
L:1/8
Q:1/2=96
K:D
A2|"D"F2A2 "G"G2B2|"D"A2f2 fef2|"Em"G2e2    ede2|"D"F2d2 d2
A2|"D"F2A2 "G"G2B2|"D"A2f2 fef2|"Em"g2e2 "A"egfe|"D"d2f2 d2:|
K:G
ef|"C"g2f2    egfe|"G"d2B2 BAB2|"D7"c2A2    AGA2|"G"B2G2 G2
Bd|"C"g2f2    egfe|"G"d2B2 BAB2|"D7"c2A2    AcBA|"G"G2B2 G2:|

